dist/svgs/unicons/line/prescription-bottle.svg

<svg xmlns="http://www.w3.org/2000/svg" data-name="Layer 1" viewBox="0 0 24 24"><path d="M19 2H5a2 2 0 00-2 2v2a2 2 0 002 2v11a3 3 0 003 3h8a3 3 0 003-3V8a2 2 0 002-2V4a2 2 0 00-2-2zm-2 14h-6v-4h6zm0-6h-7a1 1 0 00-1 1v6a1 1 0 001 1h7v1a1 1 0 01-1 1H8a1 1 0 01-1-1V8h10zM5 6V4h14v2z"/></svg>

<svg xmlns="http://www.w3.org/2000/svg" data-name="Layer 1" viewBox="0 0 24 24"><path d="M19,2H5A2,2,0,0,0,3,4V6A2,2,0,0,0,5,8V19a3,3,0,0,0,3,3h8a3,3,0,0,0,3-3V8a2,2,0,0,0,2-2V4A2,2,0,0,0,19,2ZM17,16H11V12h6Zm0-6H10a1,1,0,0,0-1,1v6a1,1,0,0,0,1,1h7v1a1,1,0,0,1-1,1H8a1,1,0,0,1-1-1V8H17ZM5,6V4H19V6Z"/></svg>
